X: 8
T:Paddy Fahey's Reel
M:4/4
L:1/8
C:Trad.
K:C
|:DA,DE FEFG|Ad (3ccA d2 de|f2 df edcA|G_BAG FGEF|
DA,DE FEFG|Ad (3ccA d2 de|f2 df edcA|G_BAG FGEF:|
:Ad (3ddd fd (3ddd|Ac (3ccc cBAG|Ad (3ddd fd (3ddd|cAB^c defg|
a2 ^ga AB (3=cBA|dcAG FGEF| DA,DE FEFG|Ad (3ccA d2 d2:|

